!!!OTL: Kucaihua
!!!ARE: Asia, China,ÿShandong, Changle
!! III, 358
!!!SCT: C1566
!!!YEM: Copyright 1995, estate of Helmut Schaffrath.
**kern
*ICvox
*Ivox
*M4/4
*k[f#c#g#d#]
*E:
{8f#
8G#
4.B
8c#
8f#
8c#
=1
4.e
8f#
8.g#
16g#
8f#
8e
=2
8c#
8B
4G#
2B}
=3
{16e
8e
16c#
8e
8f#
8g#
4g#
8b
=4
8g#
16g#
16f#
8e
8g#
2f#}
=5
{8e
16e
16c#
8e
8f#
8g#
8b
8f#
8d#
=6
8c#
16c#
16c#
8f#
8f#
8c#
8B
4G#
=7
2B
2r}
==
!!!AGN: Xiaodiao. Suku
!!!AMT: simple quadruple
!!!AIN: vox
!!!EED: Helmut Schaffrath
!!!EEV: 1.0
*-
